cloud-refresh-outline.svg

<svg fill="currentColor" viewBox="0 0 24 24"><path d="M12 18.5c0 .5.07 1 .18 1.5H6.5c-1.5 0-2.81-.5-3.89-1.57C1.54 17.38 1 16.09 1 14.58q0-1.95 1.17-3.48C3.34 9.57 4 9.43 5.25 9.15c.42-1.53 1.25-2.77 2.5-3.72S10.42 4 12 4c1.95 0 3.6.68 4.96 2.04S19 9.05 19 11c1.15.13 2.1.63 2.86 1.5.24.26.43.55.6.86A6.37 6.37 0 0 0 18.5 12c-.5 0-1 .07-1.5.18V11c0-1.38-.5-2.56-1.46-3.54C14.56 6.5 13.38 6 12 6s-2.56.5-3.54 1.46C7.5 8.44 7 9.62 7 11h-.5c-.97 0-1.79.34-2.47 1.03-.69.68-1.03 1.5-1.03 2.47s.34 1.79 1.03 2.5c.68.66 1.5 1 2.47 1h5.53c-.03.17-.03.33-.03.5m6-4c-2.21 0-4 1.79-4 4s1.79 4 4 4c1.68 0 3.12-1.03 3.71-2.5H20a2.5 2.5 0 1 1-.23-3.27L18 18.5h4v-4l-1.17 1.17A4 4 0 0 0 18 14.5"/></svg>

<svg  viewBox="0 0 24 24" fill="currentColor"><path  d="M12 18.5C12 19 12.07 19.5 12.18 20H6.5C5 20 3.69 19.5 2.61 18.43C1.54 17.38 1 16.09 1 14.58C1 13.28 1.39 12.12 2.17 11.1S4 9.43 5.25 9.15C5.67 7.62 6.5 6.38 7.75 5.43S10.42 4 12 4C13.95 4 15.6 4.68 16.96 6.04C18.32 7.4 19 9.05 19 11C20.15 11.13 21.1 11.63 21.86 12.5C22.1 12.76 22.29 13.05 22.46 13.36C21.36 12.5 20 12 18.5 12C18 12 17.5 12.07 17 12.18V11C17 9.62 16.5 8.44 15.54 7.46C14.56 6.5 13.38 6 12 6S9.44 6.5 8.46 7.46C7.5 8.44 7 9.62 7 11H6.5C5.53 11 4.71 11.34 4.03 12.03C3.34 12.71 3 13.53 3 14.5S3.34 16.29 4.03 17C4.71 17.66 5.53 18 6.5 18H12.03C12 18.17 12 18.33 12 18.5M18 14.5C15.79 14.5 14 16.29 14 18.5S15.79 22.5 18 22.5C19.68 22.5 21.12 21.47 21.71 20H20C19.54 20.61 18.82 21 18 21C16.62 21 15.5 19.88 15.5 18.5S16.62 16 18 16C18.69 16 19.32 16.28 19.77 16.73L18 18.5H22V14.5L20.83 15.67C20.11 14.95 19.11 14.5 18 14.5Z"/></svg>
